!!!OTL: 649. Erbauliche Gedanken eines Tobakrauchers.
!!!COM: Volksweise
!!!ARE: Europa, Mitteleuropa, Deutschland, Schlesien
!!!SCT: B0649A
!!!TXL: @@DE
!!!YEM: Copyright 1995, estate of Helmut Schaffrath.
**kern	**text
*ICvox	*
*Ivox	*
*clefG2	*
*M4/4	*
*met(c)	*
*k[b-]	*
*F:	*
!LO:TX:a:t=Ruhig.	!
{8c	So
8f	oft
8a	ich
=1	=1
4cc	mei-
4cc	-ne
4.ff	Ta-
8a	-baks-
=2	=2
8ccL	-pfei-
8b-J	.
4b-	-fe
8r}	.
{8b-	mit
8b-	gu-
8b-	-tem
=3	=3
4a	Kna-
4cc	-ſter
8.ddL	an-
16b-	.
8gJ	.
8a	-ge-
=4	=4
4f	-füllt.
4r	.
8r}	.
{8c	ſo
8f	dient
8a	ſie
=5	=5
4cc	mir
4cc	ʒum
4.ff	Ʒeit,
8a	ver-
=6	=6
8ccL	-trei-
8b-J	.
4b-	-be
8r}	.
{8b-	und
8b-	giebt
8b-	mir
=7	=7
4a	oft
4cc	ein
8.ddL	Trau-
16b-	.
8gJ	.
8a	-er-
=8	=8
!LO:N:vis=4	!
4.f	-bild.
4r	.
4r}	.
{8f	Sie
=9	=9
8cc	fügt
8cc	mir
8cc	die-
8cc	-ſe
8b-	Leh-
8dd	-re
8dd}	bei,
{8cc	daß
=10	=10
8ee	ich
8ee	der-
8ee	-ſel-
8ee	-ben
8cc	ähnlich
8ff	.
8ff}	ſei,
{8a	daß
=11	=11
8cc	ich
8cc	der-
8cc	-ſel-
8cc	-ben
8.ddL	ähn-
16b-	.
8gJ	.
8a	-lich
=12	=12
4f	ſei.
4r	.
8r}	.
==	==
!!!AGN: Moral -, Lob - Lied auf den Tabak
!!!GTL: Didaktische Lieder: Betrachtungen, Vergleiche und Moralisationen
!!!ONB: ESAC (Essen Associative Code) Database: BOEHME
!!!AMT: simple quadruple
!!!AIN: vox
!!!EED: Helmut Schaffrath
!!!EEV: 1.0
!!@@COMMENT:"Das Tabakslied von Sperontes mit Volksweise, im Text wenig abweichend
!!fand ich noch 1842 in Volksmunde in Schlesien und wurde in folgender Form zu Konradsdorf aufgezeichnet:
!![...]Das Lied iſt ein Beweis, daß Sperontes Gedichte vom Volke aufgenommen wurden. Sollte vielleicht der Text von 
!!Henrici Picander) gedichtet ſein und in deſſen "Sammlung erbaulicher Gedanken.
!!Leipʒig 1714" ſtehen? Er lieferte für Bach mehrere geiſtl. Texte."
!!@@END:
!!!URL-scan: https://archive.org/details/BoehmeVtLieder1895/page/n507/mode/2up
!!!ENC: Anna Maria Matuszewska
!!!EEV: 2024/16/07
*-	*-
